X: 111
T: NN The piebald horse
%%abc-version 2.0
%%abcx-abcm2ps-target-version 5.9.1 (29 Sep 2008)
%%abc-creator hum2abc beta
%%abcx-conversion-date 2013/10/02 07:44:27
%%abc-edited-by Helmut Schaffrath
%%humdrum-veritas 3914146465
%%humdrum-veritas-data 2557546836
%%continueall 1
%%barnumbers 0
L: 1/16
M: 2/4
K: C
A2 G E G2 A c [I:setbarnb 1]| 
G8 | 
A2 G E G2 E c | 
G8 | 
G2 G Ac4 | 
G A c2 G2 E2 | 
E D C2 E2 G2 | 
C8 |]  



